archdroid-icon-theme/Archdroid-Shamrock/apps/scalable/cs-tablet.svg

<svg xmlns="http://www.w3.org/2000/svg" viewBox="0 0 44 32" fill="#00E676"><path d="m40 0h-36c-2.21 0-4 1.79-4 4v24c0 2.21 1.79 4 4 4h36c2.21 0 3.98-1.79 3.98-4l.02-24c0-2.21-1.79-4-4-4m-4 28h-28v-24h28v24"/></svg>

<?xml version="1.0" encoding="UTF-8" standalone="no"?>
<svg
   xmlns:dc="http://purl.org/dc/elements/1.1/"
   xmlns:cc="http://creativecommons.org/ns#"
   xmlns:rdf="http://www.w3.org/1999/02/22-rdf-syntax-ns#"
   xmlns:svg="http://www.w3.org/2000/svg"
   xmlns="http://www.w3.org/2000/svg"
   xmlns:sodipodi="http://sodipodi.sourceforge.net/DTD/sodipodi-0.dtd"
   xmlns:inkscape="http://www.inkscape.org/namespaces/inkscape"
   width="44"
   height="32"
   viewBox="0 0 44 32"
   id="svg2"
   version="1.1"
   inkscape:version="0.91 r13725"
   sodipodi:docname="cs-tablet.svg"
   style="fill:#00E676">
  <metadata
     id="metadata10">
    <rdf:RDF>
      <cc:Work
         rdf:about="">
        <dc:format>image/svg+xml</dc:format>
        <dc:type
           rdf:resource="http://purl.org/dc/dcmitype/StillImage" />
        <dc:title></dc:title>
      </cc:Work>
    </rdf:RDF>
  </metadata>
  <defs
     id="defs8" />
  <sodipodi:namedview
     pagecolor="#ffffff"
     bordercolor="#666666"
     borderopacity="1"
     objecttolerance="10"
     gridtolerance="10"
     guidetolerance="10"
     inkscape:pageopacity="0"
     inkscape:pageshadow="2"
     inkscape:window-width="668"
     inkscape:window-height="480"
     id="namedview6"
     showgrid="false"
     fit-margin-top="0"
     fit-margin-left="0"
     fit-margin-right="0"
     fit-margin-bottom="0"
     inkscape:zoom="4.916666666666668"
     inkscape:cx="21.99999999999999"
     inkscape:cy="15.99999999999999"
     inkscape:window-x="0"
     inkscape:window-y="30"
     inkscape:window-maximized="0"
     inkscape:current-layer="svg2" />
  <path
     d="M 40,0 4,0 C 1.79,0 0,1.789999999999999 0,4 l 0,24 c 0,2.21 1.79,4 4,4 l 36,0 c 2.21,0 3.98,-1.79 3.98,-4 L 44,4 C 44,1.789999999999999 42.21,0 40,0 Z M 36,28 8,28 8,4 36,4 36,28 Z"
     id="path4"
     inkscape:connector-curvature="0" />
</svg>
